src/lib/packages/icons/src/assets/filled/bread-slice.svg

<svg width="24" height="24" viewBox="0 0 24 24" fill="none" xmlns="http://www.w3.org/2000/svg">
<path d="M19.1 4.12C17.61 3.58 15.24 3 12 3C8.76 3 6.40002 3.58 4.90002 4.12C3.76002 4.53 3 5.60001 3 6.82001V7.23999C3 8.31999 3.61002 9.30999 4.58002 9.79999L5 10.01V19.51C5 20.34 5.67 21.01 6.5 21.01H17.5C18.33 21.01 19 20.34 19 19.51V10.01L20.16 8.85001C20.7 8.31001 21 7.58999 21 6.82999C21 5.61999 20.24 4.54 19.1 4.13V4.12ZM7.27002 8C7.27002 7.59 7.60002 7.25 8.02002 7.25C8.44002 7.25 8.77002 7.59 8.77002 8C8.77002 8.41 8.44002 8.75 8.02002 8.75C7.60002 8.75 7.27002 8.41 7.27002 8ZM9.02002 17.75C8.61002 17.75 8.27002 17.41 8.27002 17C8.27002 16.59 8.60002 16.25 9.02002 16.25C9.44002 16.25 9.77002 16.59 9.77002 17C9.77002 17.41 9.44002 17.75 9.02002 17.75ZM10.02 12.75C9.61002 12.75 9.27002 12.41 9.27002 12C9.27002 11.59 9.60002 11.25 10.02 11.25C10.44 11.25 10.77 11.59 10.77 12C10.77 12.41 10.44 12.75 10.02 12.75ZM14.02 14.75C13.61 14.75 13.27 14.41 13.27 14C13.27 13.59 13.6 13.25 14.02 13.25C14.44 13.25 14.77 13.59 14.77 14C14.77 14.41 14.44 14.75 14.02 14.75ZM14.27 9C14.27 8.59 14.6 8.25 15.02 8.25C15.44 8.25 15.77 8.59 15.77 9C15.77 9.41 15.44 9.75 15.02 9.75C14.6 9.75 14.27 9.41 14.27 9ZM16.02 18.75C15.61 18.75 15.27 18.41 15.27 18C15.27 17.59 15.6 17.25 16.02 17.25C16.44 17.25 16.77 17.59 16.77 18C16.77 18.41 16.44 18.75 16.02 18.75Z" fill="currentColor"/>
</svg>

<svg xmlns="http://www.w3.org/2000/svg" width="24" height="24" fill="none"><path fill="currentColor" d="M19.1 4.12C17.61 3.58 15.24 3 12 3c-3.24 0-5.6.58-7.1 1.12A2.86 2.86 0 0 0 3 6.82v.42c0 1.08.61 2.07 1.58 2.56l.42.21v9.5c0 .83.67 1.5 1.5 1.5h11c.83 0 1.5-.67 1.5-1.5v-9.5l1.16-1.16c.54-.54.84-1.26.84-2.02 0-1.21-.76-2.29-1.9-2.7v-.01ZM7.27 8a.749.749 0 1 1 1.5 0 .749.749 0 1 1-1.5 0Zm1.75 9.75a.749.749 0 1 1 .75-.75c0 .41-.33.75-.75.75Zm1-5a.749.749 0 1 1 .75-.75c0 .41-.33.75-.75.75Zm4 2a.749.749 0 1 1 .75-.75c0 .41-.33.75-.75.75ZM14.27 9a.749.749 0 1 1 1.5 0 .749.749 0 1 1-1.5 0Zm1.75 9.75a.749.749 0 1 1 .75-.75c0 .41-.33.75-.75.75Z"/></svg>
